app/assets/images/landing/available-coins.svg

<?xml version="1.0" encoding="UTF-8" standalone="no"?>
<svg width="1084px" height="174px" viewBox="0 0 1084 174" version="1.1" xmlns="http://www.w3.org/2000/svg" xmlns:xlink="http://www.w3.org/1999/xlink" xmlns:sketch="http://www.bohemiancoding.com/sketch/ns">
    <title>coinz</title>
    <description>Created with Sketch (http://www.bohemiancoding.com/sketch)</description>
    <defs></defs>
    <g id="Page-1" stroke="none" stroke-width="1" fill="none" fill-rule="evenodd" sketch:type="MSPage">
        <g id="landing-page" sketch:type="MSArtboardGroup" transform="translate(-657.000000, -2382.000000)">
            <g id="coinz" sketch:type="MSLayerGroup" transform="translate(659.000000, 2385.000000)">
                <g id="Group" transform="translate(-0.468547, -0.474441)" sketch:type="MSShapeGroup">
                    <path d="M169,84.8721965 C169,131.54738 131.16731,169.381176 84.5,169.381176 C37.8326897,169.381176 0,131.54738 0,84.8721965 C0,38.2028412 37.8326897,0.363217257 84.5,0.363217257 C131.16731,0.363217257 169,38.2028412 169,84.8721965 L169,84.8721965 Z" id="Stroke-4869" stroke="#FC9D1C" stroke-width="3" stroke-linecap="round" stroke-linejoin="round"></path>
                    <rect id="Rectangle-8" fill="#FC9D1C" x="77.4685466" y="35.4744409" width="10" height="18" rx="2"></rect>
                    <rect id="Rectangle-8-copy" fill="#FC9D1C" x="77.4685466" y="116.474441" width="10" height="18" rx="2"></rect>
                    <path d="M116,103.4 C116,93.8 108.92,85.04 100.4,83.72 C107.72,82.16 114.44,75.44 114.44,65.36 C114.44,53.36 105.92,44.96 92,44.96 L63.56,44.96 C59.6,44.96 56.36,48.2 56.36,52.16 L56.36,117.8 C56.36,121.76 59.6,125 63.56,125 L92.84,125 C107.48,125 116,116.24 116,103.4 Z M104.12,66.8 C104.12,74.12 99.32,79.64 90.32,79.64 L66.32,79.64 L66.32,53.84 L90.32,53.84 C99.32,53.84 104.12,59.6 104.12,66.8 Z M105.68,102.32 C105.68,110.84 100.16,116.12 90.8,116.12 L66.32,116.12 L66.32,88.52 L90.8,88.52 C100.64,88.52 105.68,95 105.68,102.32 Z" id="B" fill="#FC9D1C"></path>
                </g>
                <g id="Group-copy" transform="translate(573.000000, -0.474441)" sketch:type="MSShapeGroup">
                    <path d="M169,84.8721965 C169,131.54738 131.16731,169.381176 84.5,169.381176 C37.8326897,169.381176 0,131.54738 0,84.8721965 C0,38.2028412 37.8326897,0.363217257 84.5,0.363217257 C131.16731,0.363217257 169,38.2028412 169,84.8721965 L169,84.8721965 Z" id="Stroke-4869" stroke="#FFCA50" stroke-width="3" stroke-linecap="round" stroke-linejoin="round"></path>
                    <rect id="Rectangle-8" fill="#FFCA50" x="47" y="85" width="30" height="10" rx="2"></rect>
                    <path d="M124.76,85.04 C124.76,62.36 108.56,44.96 83.72,44.96 L63.56,44.96 C59.6,44.96 56.36,48.2 56.36,52.16 L56.36,117.8 C56.36,121.76 59.6,125 63.56,125 L83.72,125 C108.56,125 124.76,107.84 124.76,85.04 Z M114.44,85.04 C114.44,102.2 103.16,116.12 83.72,116.12 L66.32,116.12 L66.32,53.84 L83.72,53.84 C103.52,53.84 114.44,67.76 114.44,85.04 Z" id="D" fill="#FFCA50"></path>
                </g>
                <g id="Group-copy-2" transform="translate(815.531453, -0.474441)" sketch:type="MSShapeGroup">
                    <path d="M218,84.5089792 C218,131.184163 180.16731,169.017958 133.5,169.017958 C86.8326897,169.017958 49,131.184163 49,84.5089792 C49,37.839624 86.8326897,0 133.5,0 C180.16731,0 218,37.839624 218,84.5089792 L218,84.5089792 Z" id="Stroke-4869" stroke="#D4D4D4" stroke-width="3" stroke-linecap="round" stroke-linejoin="round"></path>
                    <g id="P-+-Rectangle-12" transform="translate(101.000000, 45.000000)" fill="#000000">
                        <rect id="Rectangle-12" x="0.468546638" y="0.474440873" width="10" height="80" rx="40"></rect>
                        <path d="M71.6,24.08 C71.6,11 62.6,-0.04 46.52,-0.04 L21.56,-0.04 C17.6,-0.04 14.36,3.2 14.36,7.16 L14.36,75.8 C14.36,78.56 16.52,80.72 19.28,80.72 C22.16,80.72 24.32,78.56 24.32,75.8 L24.32,48.2 L46.52,48.2 C62.36,48.2 71.6,37.16 71.6,24.08 Z M61.28,24.08 C61.28,33.08 54.8,39.32 45.32,39.32 L24.32,39.32 L24.32,8.84 L45.32,8.84 C54.8,8.84 61.28,15.08 61.28,24.08 Z" id="P"></path>
                    </g>
                    <rect id="Rectangle-13" opacity="0.95" fill="#FC9D1C" x="0" y="45" width="266" height="80" rx="50"></rect>
                    <path d="M42.352,97.432 C46.6,97.432 49.48,95.416 51.496,92.68 L48.94,91.276 C47.572,93.328 45.088,94.768 42.352,94.768 C37.096,94.768 33.1,90.7 33.1,85.012 C33.1,79.288 37.096,75.256 42.352,75.256 C45.088,75.256 47.572,76.732 48.94,78.748 L51.46,77.344 C49.552,74.644 46.6,72.592 42.352,72.592 C35.44,72.592 30.004,77.632 30.004,85.012 C30.004,92.392 35.44,97.432 42.352,97.432 Z M62.8,97.432 C68.092,97.432 71.404,93.328 71.404,88.288 C71.404,83.248 68.092,79.18 62.8,79.18 C57.508,79.18 54.196,83.248 54.196,88.288 C54.196,93.328 57.508,97.432 62.8,97.432 Z M62.8,95.02 C59.092,95.02 57.004,91.852 57.004,88.288 C57.004,84.76 59.092,81.592 62.8,81.592 C66.508,81.592 68.56,84.76 68.56,88.288 C68.56,91.852 66.508,95.02 62.8,95.02 Z M99.484,97 L99.484,84.436 C99.484,80.944 97.792,79.18 94.624,79.18 C92.104,79.18 89.764,80.836 88.792,82.42 C88.288,80.62 86.776,79.18 84.112,79.18 C81.556,79.18 79.216,81.016 78.496,82.132 L78.496,79.612 L75.796,79.612 L75.796,97 L78.496,97 L78.496,84.292 C79.432,82.888 81.304,81.592 83.068,81.592 C85.336,81.592 86.272,82.996 86.272,85.192 L86.272,97 L88.972,97 L88.972,84.256 C89.872,82.888 91.78,81.592 93.58,81.592 C95.812,81.592 96.784,82.996 96.784,85.192 L96.784,97 L99.484,97 Z M106.216,77.128 C107.224,77.128 108.052,76.336 108.052,75.328 C108.052,74.32 107.224,73.492 106.216,73.492 C105.244,73.492 104.416,74.32 104.416,75.328 C104.416,76.336 105.244,77.128 106.216,77.128 Z M107.584,97 L107.584,79.612 L104.884,79.612 L104.884,97 L107.584,97 Z M127.42,97 L127.42,84.796 C127.42,81.016 125.512,79.18 121.876,79.18 C119.284,79.18 116.908,80.692 115.684,82.132 L115.684,79.612 L112.984,79.612 L112.984,97 L115.684,97 L115.684,84.292 C116.692,82.888 118.708,81.592 120.832,81.592 C123.172,81.592 124.72,82.564 124.72,85.624 L124.72,97 L127.42,97 Z M139.804,104.056 C144.052,104.056 148.084,102.256 148.084,96.496 L148.084,79.612 L145.384,79.612 L145.384,82.24 C143.98,80.332 141.892,79.18 139.552,79.18 C134.98,79.18 131.812,82.636 131.812,88.216 C131.812,93.832 135.016,97.216 139.552,97.216 C142,97.216 144.124,95.884 145.384,94.12 L145.384,96.604 C145.384,100.42 142.684,101.824 139.804,101.824 C137.32,101.824 135.592,101.176 134.152,99.448 L132.784,101.464 C134.836,103.48 136.852,104.056 139.804,104.056 Z M140.2,94.84 C136.708,94.84 134.62,92.032 134.62,88.216 C134.62,84.364 136.708,81.592 140.2,81.592 C142.36,81.592 144.448,82.888 145.384,84.4 L145.384,91.996 C144.448,93.508 142.36,94.84 140.2,94.84 Z M168.28,97.432 C172.78,97.432 175.12,95.092 175.12,92.176 C175.12,85.408 164.356,87.928 164.356,84.112 C164.356,82.564 165.832,81.376 168.208,81.376 C170.44,81.376 172.348,82.312 173.392,83.572 L174.652,81.7 C173.248,80.296 171.16,79.18 168.208,79.18 C164.068,79.18 161.728,81.484 161.728,84.184 C161.728,90.628 172.492,88.036 172.492,92.248 C172.492,93.976 171.052,95.236 168.388,95.236 C166.012,95.236 163.816,94.084 162.664,92.752 L161.26,94.696 C163.024,96.568 165.436,97.432 168.28,97.432 Z M187.108,97.432 C192.4,97.432 195.712,93.328 195.712,88.288 C195.712,83.248 192.4,79.18 187.108,79.18 C181.816,79.18 178.504,83.248 178.504,88.288 C178.504,93.328 181.816,97.432 187.108,97.432 Z M187.108,95.02 C183.4,95.02 181.312,91.852 181.312,88.288 C181.312,84.76 183.4,81.592 187.108,81.592 C190.816,81.592 192.868,84.76 192.868,88.288 C192.868,91.852 190.816,95.02 187.108,95.02 Z M207.7,97.432 C212.992,97.432 216.304,93.328 216.304,88.288 C216.304,83.248 212.992,79.18 207.7,79.18 C202.408,79.18 199.096,83.248 199.096,88.288 C199.096,93.328 202.408,97.432 207.7,97.432 Z M207.7,95.02 C203.992,95.02 201.904,91.852 201.904,88.288 C201.904,84.76 203.992,81.592 207.7,81.592 C211.408,81.592 213.46,84.76 213.46,88.288 C213.46,91.852 211.408,95.02 207.7,95.02 Z M235.132,97 L235.132,84.796 C235.132,81.016 233.224,79.18 229.588,79.18 C226.996,79.18 224.62,80.692 223.396,82.132 L223.396,79.612 L220.696,79.612 L220.696,97 L223.396,97 L223.396,84.292 C224.404,82.888 226.42,81.592 228.544,81.592 C230.884,81.592 232.432,82.564 232.432,85.624 L232.432,97 L235.132,97 Z" id="Coming-soon" fill="#FFFFFF"></path>
                </g>
                <g id="Group-copy" transform="translate(286.000000, -0.474441)" sketch:type="MSShapeGroup">
                    <path d="M169,84.5089792 C169,131.184163 131.16731,169.017958 84.5,169.017958 C37.8326897,169.017958 0,131.184163 0,84.5089792 C0,37.839624 37.8326897,0 84.5,0 C131.16731,0 169,37.839624 169,84.5089792 L169,84.5089792 Z" id="Stroke-4869" stroke="#9B9B9B" stroke-width="3" stroke-linecap="round" stroke-linejoin="round"></path>
                    <g id="L-+-Rectangle-8-copy" transform="translate(55.000000, 44.000000)" fill="#9B9B9B">
                        <path d="M54.92,72.12 L21.32,72.12 L31.32,5.04 C31.32,2.4 29.16,0.24 26.52,0.24 C23.52,0.24 21.36,2.4 21.36,5.04 L11.36,73.8 C11.36,77.76 14.6,81 18.56,81 L54.92,81 C57.32,81 59.24,79.08 59.24,76.44 C59.24,74.04 57.32,72.12 54.92,72.12 Z" id="L"></path>
                        <path d="M12.4681616,23.4744409 C11.3638048,23.4744409 10.6867108,24.3470976 10.9542469,25.4172419 L19.9828464,61.5316399 C20.2510912,62.6046192 21.3559799,63.4744409 22.4681616,63.4744409 L28.4689317,63.4744409 C29.5732885,63.4744409 30.2503825,62.6017842 29.9828464,61.5316399 L20.9542469,25.4172419 C20.686002,24.3442625 19.5811133,23.4744409 18.4689317,23.4744409 L12.4681616,23.4744409 Z" id="Rectangle-8-copy" transform="translate(20.468547, 43.474441) rotate(-270.000000) translate(-20.468547, -43.474441) "></path>
                    </g>
                </g>
            </g>
        </g>
    </g>
</svg>

<svg width="1084" height="174" viewBox="0 0 1084 174" xmlns="http://www.w3.org/2000/svg" xmlns:sketch="http://www.bohemiancoding.com/sketch/ns"><title>coinz</title><g sketch:type="MSLayerGroup" fill="none"><g transform="translate(1.531 2.526)" sketch:type="MSShapeGroup"><path d="M169 84.872c0 46.675-37.833 84.509-84.5 84.509s-84.5-37.834-84.5-84.509c0-46.669 37.833-84.509 84.5-84.509s84.5 37.84 84.5 84.509z" id="Stroke-4869" stroke="#FC9D1C" stroke-width="3" stroke-linecap="round" stroke-linejoin="round"/><rect id="Rectangle-8" fill="#FC9D1C" x="77.469" y="35.474" width="10" height="18" rx="2"/><rect id="Rectangle-8-copy" fill="#FC9D1C" x="77.469" y="116.474" width="10" height="18" rx="2"/><path d="M116 103.4c0-9.6-7.08-18.36-15.6-19.68 7.32-1.56 14.04-8.28 14.04-18.36 0-12-8.52-20.4-22.44-20.4h-28.44c-3.96 0-7.2 3.24-7.2 7.2v65.64c0 3.96 3.24 7.2 7.2 7.2h29.28c14.64 0 23.16-8.76 23.16-21.6zm-11.88-36.6c0 7.32-4.8 12.84-13.8 12.84h-24v-25.8h24c9 0 13.8 5.76 13.8 12.96zm1.56 35.52c0 8.52-5.52 13.8-14.88 13.8h-24.48v-27.6h24.48c9.84 0 14.88 6.48 14.88 13.8z" fill="#FC9D1C"/></g><g id="Group-copy" transform="translate(575 2.526)" sketch:type="MSShapeGroup"><path d="M169 84.872c0 46.675-37.833 84.509-84.5 84.509s-84.5-37.834-84.5-84.509c0-46.669 37.833-84.509 84.5-84.509s84.5 37.84 84.5 84.509z" id="Stroke-4869" stroke="#FFCA50" stroke-width="3" stroke-linecap="round" stroke-linejoin="round"/><rect fill="#FFCA50" x="47" y="85" width="30" height="10" rx="2"/><path d="M124.76 85.04c0-22.68-16.2-40.08-41.04-40.08h-20.16c-3.96 0-7.2 3.24-7.2 7.2v65.64c0 3.96 3.24 7.2 7.2 7.2h20.16c24.84 0 41.04-17.16 41.04-39.96zm-10.32 0c0 17.16-11.28 31.08-30.72 31.08h-17.4v-62.28h17.4c19.8 0 30.72 13.92 30.72 31.2z" fill="#FFCA50"/></g><g transform="translate(817.531 2.526)" sketch:type="MSShapeGroup"><path d="M218 84.509c0 46.675-37.833 84.509-84.5 84.509s-84.5-37.834-84.5-84.509c0-46.669 37.833-84.509 84.5-84.509s84.5 37.84 84.5 84.509z" id="Stroke-4869" stroke="#D4D4D4" stroke-width="3" stroke-linecap="round" stroke-linejoin="round"/><g transform="translate(101 45)" fill="#000"><rect x=".469" y=".474" width="10" height="80" rx="40"/><path d="M71.6 24.08c0-13.08-9-24.12-25.08-24.12h-24.96c-3.96 0-7.2 3.24-7.2 7.2v68.64c0 2.76 2.16 4.92 4.92 4.92 2.88 0 5.04-2.16 5.04-4.92v-27.6h22.2c15.84 0 25.08-11.04 25.08-24.12zm-10.32 0c0 9-6.48 15.24-15.96 15.24h-21v-30.48h21c9.48 0 15.96 6.24 15.96 15.24z"/></g><rect opacity=".95" fill="#FC9D1C" y="45" width="266" height="80" rx="50"/><path d="M42.352 97.432c4.248 0 7.128-2.016 9.144-4.752l-2.556-1.404c-1.368 2.052-3.852 3.492-6.588 3.492-5.256 0-9.252-4.068-9.252-9.756 0-5.724 3.996-9.756 9.252-9.756 2.736 0 5.22 1.476 6.588 3.492l2.52-1.404c-1.908-2.7-4.86-4.752-9.108-4.752-6.912 0-12.348 5.04-12.348 12.42s5.436 12.42 12.348 12.42zm20.448 0c5.292 0 8.604-4.104 8.604-9.144s-3.312-9.108-8.604-9.108-8.604 4.068-8.604 9.108c0 5.04 3.312 9.144 8.604 9.144zm0-2.412c-3.708 0-5.796-3.168-5.796-6.732 0-3.528 2.088-6.696 5.796-6.696s5.76 3.168 5.76 6.696c0 3.564-2.052 6.732-5.76 6.732zm36.684 1.98v-12.564c0-3.492-1.692-5.256-4.86-5.256-2.52 0-4.86 1.656-5.832 3.24-.504-1.8-2.016-3.24-4.68-3.24-2.556 0-4.896 1.836-5.616 2.952v-2.52h-2.7v17.388h2.7v-12.708c.936-1.404 2.808-2.7 4.572-2.7 2.268 0 3.204 1.404 3.204 3.6v11.808h2.7v-12.744c.9-1.368 2.808-2.664 4.608-2.664 2.232 0 3.204 1.404 3.204 3.6v11.808h2.7zm6.732-19.872c1.008 0 1.836-.792 1.836-1.8s-.828-1.836-1.836-1.836c-.972 0-1.8.828-1.8 1.836s.828 1.8 1.8 1.8zm1.368 19.872v-17.388h-2.7v17.388h2.7zm19.836 0v-12.204c0-3.78-1.908-5.616-5.544-5.616-2.592 0-4.968 1.512-6.192 2.952v-2.52h-2.7v17.388h2.7v-12.708c1.008-1.404 3.024-2.7 5.148-2.7 2.34 0 3.888.972 3.888 4.032v11.376h2.7zm12.384 7.056c4.248 0 8.28-1.8 8.28-7.56v-16.884h-2.7v2.628c-1.404-1.908-3.492-3.06-5.832-3.06-4.572 0-7.74 3.456-7.74 9.036 0 5.616 3.204 9 7.74 9 2.448 0 4.572-1.332 5.832-3.096v2.484c0 3.816-2.7 5.22-5.58 5.22-2.484 0-4.212-.648-5.652-2.376l-1.368 2.016c2.052 2.016 4.068 2.592 7.02 2.592zm.396-9.216c-3.492 0-5.58-2.808-5.58-6.624 0-3.852 2.088-6.624 5.58-6.624 2.16 0 4.248 1.296 5.184 2.808v7.596c-.936 1.512-3.024 2.844-5.184 2.844zm28.08 2.592c4.5 0 6.84-2.34 6.84-5.256 0-6.768-10.764-4.248-10.764-8.064 0-1.548 1.476-2.736 3.852-2.736 2.232 0 4.14.936 5.184 2.196l1.26-1.872c-1.404-1.404-3.492-2.52-6.444-2.52-4.14 0-6.48 2.304-6.48 5.004 0 6.444 10.764 3.852 10.764 8.064 0 1.728-1.44 2.988-4.104 2.988-2.376 0-4.572-1.152-5.724-2.484l-1.404 1.944c1.764 1.872 4.176 2.736 7.02 2.736zm18.828 0c5.292 0 8.604-4.104 8.604-9.144s-3.312-9.108-8.604-9.108-8.604 4.068-8.604 9.108c0 5.04 3.312 9.144 8.604 9.144zm0-2.412c-3.708 0-5.796-3.168-5.796-6.732 0-3.528 2.088-6.696 5.796-6.696s5.76 3.168 5.76 6.696c0 3.564-2.052 6.732-5.76 6.732zm20.592 2.412c5.292 0 8.604-4.104 8.604-9.144s-3.312-9.108-8.604-9.108-8.604 4.068-8.604 9.108c0 5.04 3.312 9.144 8.604 9.144zm0-2.412c-3.708 0-5.796-3.168-5.796-6.732 0-3.528 2.088-6.696 5.796-6.696s5.76 3.168 5.76 6.696c0 3.564-2.052 6.732-5.76 6.732zm27.432 1.98v-12.204c0-3.78-1.908-5.616-5.544-5.616-2.592 0-4.968 1.512-6.192 2.952v-2.52h-2.7v17.388h2.7v-12.708c1.008-1.404 3.024-2.7 5.148-2.7 2.34 0 3.888.972 3.888 4.032v11.376h2.7z" fill="#fff"/></g><g sketch:type="MSShapeGroup"><path d="M457 87.035c0 46.675-37.833 84.509-84.5 84.509s-84.5-37.834-84.5-84.509c0-46.669 37.833-84.509 84.5-84.509s84.5 37.84 84.5 84.509z" stroke="#9B9B9B" stroke-width="3" stroke-linecap="round" stroke-linejoin="round"/><g fill="#9B9B9B"><path d="M397.92 118.646h-33.6l10-67.08c0-2.64-2.16-4.8-4.8-4.8-3 0-5.16 2.16-5.16 4.8l-10 68.76c0 3.96 3.24 7.2 7.2 7.2h36.36c2.4 0 4.32-1.92 4.32-4.56 0-2.4-1.92-4.32-4.32-4.32z"/><path d="M383.469 81.999c0-1.104-.873-1.781-1.943-1.514l-36.114 9.029c-1.073.268-1.943 1.373-1.943 2.485v6.001c0 1.104.873 1.781 1.943 1.514l36.114-9.029c1.073-.268 1.943-1.373 1.943-2.485v-6.001z"/></g></g></g></svg>
